images/portfolio__logo_image-3.svg

<svg width="190" height="61" viewBox="0 0 190 61" fill="none" xmlns="http://www.w3.org/2000/svg">
<path d="M115.466 22.9126V45.8252H118.75H122.034V22.9126V7.27363e-05H118.75H115.466V22.9126Z" fill="white"/>
<path d="M20.0844 3.59091C14.6929 4.22194 10.172 6.34042 6.39952 10.0515C2.09244 14.3035 0 19.2616 0 25.2414C0 29.7187 1.0844 33.2796 3.58923 36.9606C6.91881 41.8586 12.1117 45.1641 18.4043 46.3811C20.3288 46.7417 24.59 46.7417 26.5756 46.366C29.4164 45.8252 32.4558 44.6683 34.701 43.2409L35.7395 42.5949V38.7035V34.8121L34.869 35.6234C31.9823 38.2978 28.0571 39.8303 23.4598 40.0707C18.7862 40.3111 14.5402 38.7035 11.5008 35.5483C5.8344 29.6737 5.8344 20.4035 11.5161 14.604C14.7846 11.2384 19.0916 9.75101 24.2693 10.1867C28.7749 10.5623 32.1961 11.9296 34.701 14.3335C35.1744 14.7993 35.6174 15.1749 35.6632 15.1749C35.709 15.1749 35.7243 13.4771 35.709 11.3887L35.6632 7.60249L34.8995 7.01652C33.1125 5.67933 29.6913 4.32712 26.7436 3.8313C25.1704 3.56086 21.5354 3.42564 20.0844 3.59091Z" fill="white"/>
<path d="M54.1592 15.6407C50.7379 16.1365 47.4847 17.7291 45.0715 20.103C43.6664 21.4852 42.7958 22.7022 41.91 24.5503C40.795 26.8941 40.5659 28.036 40.5659 31.1761C40.5659 34.151 40.7339 35.0375 41.6961 37.3062C42.7195 39.7251 45.1021 42.5498 47.3473 43.9921C54.9381 48.8902 65.1407 46.967 70.0587 39.6951C73.5563 34.5416 73.5257 27.6754 69.9976 22.4168C68.6688 20.4335 66.1487 18.27 63.8883 17.1431C61.1238 15.7759 57.3055 15.1899 54.1592 15.6407ZM58.5732 21.7106C59.9478 21.9961 61.8569 22.9276 62.8802 23.8141C65.1865 25.8123 66.4542 29.3131 65.996 32.4081C65.5072 35.7887 63.6286 38.3879 60.7114 39.7702C58.0386 41.0173 54.9992 41.0022 52.2347 39.7101C50.6616 38.9739 48.8593 37.201 48.0651 35.6084C47.2404 33.9407 46.996 32.7237 47.0876 30.6503C47.1334 29.1929 47.2251 28.7271 47.6222 27.6904C48.2178 26.1278 48.9357 25.0461 50.1728 23.9042C52.3264 21.921 55.549 21.0946 58.5732 21.7106Z" fill="white"/>
<path d="M90.8151 15.6256C83.9574 16.6924 78.7033 21.5002 77.3746 27.9308C76.4887 32.1978 77.4357 36.6901 79.9558 40.1909C80.9027 41.513 83.1479 43.5263 84.5836 44.3827C87.3022 45.9754 89.7612 46.6214 93.1672 46.6214C95.7789 46.6364 97.0924 46.396 99.3834 45.5246C103.797 43.8569 107.478 39.8153 108.746 35.2327C109.174 33.7303 109.342 30.0342 109.067 28.4416C107.967 22.2214 103.034 17.2032 96.6495 15.8359C95.3054 15.5505 92.0675 15.4453 90.8151 15.6256ZM95.2291 21.7106C99.6125 22.6121 102.667 26.4884 102.667 31.101C102.667 35.8337 99.5972 39.6199 95.0611 40.5064C90.7693 41.3478 86.5538 39.3345 84.6905 35.5633C83.2701 32.6635 83.2395 29.6887 84.6141 26.7739C86.4622 22.8825 90.8151 20.7941 95.2291 21.7106Z" fill="white"/>
<path d="M139.995 15.6256C133.519 16.6323 129.09 21.0195 127.731 27.7355C127.41 29.3581 127.364 33.2646 127.654 34.6318C128.983 40.7769 132.878 44.8636 138.789 46.3059C139.873 46.5614 140.591 46.6365 142.5 46.6365C144.99 46.6365 145.891 46.5163 147.922 45.8702C149.358 45.4195 150.335 44.9537 151.588 44.1274C153.375 42.9404 156.017 40.1308 155.681 39.8003C155.589 39.7101 154.535 38.9739 153.329 38.1776L151.16 36.7052L149.923 37.9222C149.068 38.7636 148.35 39.3195 147.586 39.7101C141.599 42.7751 134.466 39.3646 133.748 33.0843L133.672 32.4532H145.341H157.01V30.9057C156.994 23.3483 152.81 17.4887 146.318 15.9261C144.822 15.5655 141.431 15.4003 139.995 15.6256ZM145.142 21.2599C146.532 21.7256 147.494 22.3717 148.625 23.5586C149.556 24.5352 150.335 25.8875 150.534 26.849L150.641 27.3448H142.271H133.916L134.008 26.849C134.191 25.9476 134.955 24.5653 135.765 23.7089C138.162 21.1397 141.904 20.1631 145.142 21.2599Z" fill="white"/>
<path d="M158.231 16.4369C158.231 16.482 161.118 22.3566 164.631 29.5234L171.046 42.5347L166.8 51.7298L162.569 60.9249L165.99 60.9699C167.884 60.985 169.457 60.9699 169.488 60.9399C169.58 60.8648 190 16.5421 190 16.4369C190 16.4069 188.442 16.3919 186.533 16.4069L183.066 16.452L178.789 25.7222L174.528 34.9773L170.007 25.6921L165.486 16.3919L161.866 16.3768C159.866 16.3768 158.231 16.4069 158.231 16.4369Z" fill="white"/>
</svg>

<svg width="190" height="61" fill="none" xmlns="http://www.w3.org/2000/svg"><path d="M115.466 22.913v22.912h6.568V0h-6.568v22.913zM20.084 3.59c-5.391.632-9.912 2.75-13.684 6.462-4.308 4.252-6.4 9.21-6.4 15.19 0 4.477 1.084 8.038 3.59 11.719 3.329 4.898 8.522 8.203 14.814 9.42 1.925.36 6.186.36 8.172-.015 2.84-.54 5.88-1.698 8.125-3.125l1.038-.646v-7.782l-.87.81c-2.887 2.675-6.812 4.207-11.41 4.448-4.673.24-8.919-1.367-11.958-4.523-5.667-5.874-5.667-15.145.015-20.944 3.269-3.366 7.576-4.853 12.753-4.417 4.506.375 7.927 1.743 10.432 4.147.473.465.916.84.962.84.046 0 .061-1.697.046-3.785l-.046-3.787-.763-.585c-1.788-1.338-5.209-2.69-8.156-3.186-1.574-.27-5.209-.405-6.66-.24zM54.16 15.64c-3.422.497-6.675 2.09-9.088 4.463-1.406 1.382-2.276 2.6-3.162 4.447-1.115 2.344-1.344 3.486-1.344 6.626 0 2.975.168 3.862 1.13 6.13 1.023 2.42 3.406 5.244 5.651 6.686 7.591 4.898 17.794 2.975 22.712-4.297 3.497-5.153 3.467-12.02-.061-17.278-1.33-1.984-3.85-4.147-6.11-5.274-2.764-1.367-6.582-1.953-9.729-1.502zm4.413 6.07c1.375.286 3.284 1.218 4.307 2.104 2.306 1.998 3.574 5.5 3.116 8.594-.489 3.38-2.367 5.98-5.285 7.362-2.672 1.247-5.712 1.232-8.476-.06-1.573-.736-3.376-2.509-4.17-4.102-.825-1.667-1.069-2.884-.977-4.958.045-1.457.137-1.923.534-2.96.596-1.562 1.314-2.644 2.55-3.786 2.154-1.983 5.377-2.81 8.401-2.193zm32.242-6.084c-6.858 1.066-12.112 5.874-13.44 12.305-.886 4.267.06 8.76 2.58 12.26.948 1.322 3.193 3.335 4.629 4.192 2.718 1.592 5.177 2.238 8.583 2.238 2.612.015 3.925-.225 6.216-1.096 4.414-1.668 8.095-5.71 9.363-10.292.428-1.503.596-5.199.321-6.791-1.1-6.22-6.033-11.239-12.417-12.606-1.345-.286-4.583-.39-5.835-.21zm4.414 6.085c4.383.901 7.438 4.777 7.438 9.39 0 4.733-3.07 8.519-7.606 9.405-4.292.842-8.507-1.172-10.37-4.943-1.42-2.9-1.451-5.874-.077-8.79 1.848-3.89 6.201-5.979 10.615-5.062zm44.766-6.085c-6.476 1.006-10.905 5.394-12.264 12.11-.321 1.622-.367 5.529-.077 6.896 1.329 6.145 5.224 10.232 11.135 11.674 1.084.255 1.802.33 3.711.33 2.49 0 3.391-.12 5.422-.766 1.436-.45 2.413-.916 3.666-1.743 1.787-1.187 4.429-3.996 4.093-4.327-.092-.09-1.146-.826-2.352-1.622l-2.169-1.473-1.237 1.217c-.855.842-1.573 1.398-2.337 1.788-5.987 3.065-13.12-.345-13.838-6.626l-.076-.63h23.338v-1.548c-.016-7.558-4.2-13.417-10.692-14.98-1.496-.36-4.887-.526-6.323-.3zm5.147 5.634c1.39.466 2.352 1.112 3.483 2.299.931.976 1.71 2.328 1.909 3.29l.107.496h-16.725l.092-.496c.183-.901.947-2.284 1.757-3.14 2.397-2.57 6.139-3.546 9.377-2.45zm13.089-4.823c0 .045 2.887 5.92 6.4 13.086l6.415 13.012-4.246 9.195-4.231 9.195 3.421.045c1.894.015 3.467 0 3.498-.03C169.58 60.865 190 16.542 190 16.437c0-.03-1.558-.045-3.467-.03l-3.467.045-4.277 9.27-4.261 9.255-4.521-9.285-4.521-9.3-3.62-.015c-2 0-3.635.03-3.635.06z" fill="#fff"/></svg>
